!!!OTL: Das Schwabentoechterlein Kejseren havde de Dotre tre,
!!!ARE: Nordeuropa, Daenemark
!!!YOR: 4, S. 50
!!    1891 gedruckt in Kobenhavn
!!!SCT: Q2073E
!!!YEM: Copyright 1995, estate of Helmut Schaffrath.
**kern
*ICvox
*Ivox
*M2/4
*k[b-]
*d:
=1
{8a
16g
16g
8a
16b-
16b-
=2
8ccn
8dd
8a}
{8g
=3
8a
8g
16a
16a
16b-
16b-
=4
4dd
8a}
{8a
=5
8fn
16fn
16g
8a
8g
=6
8d
16e
16fn
8d}
{8d
=7
8e
16fn
16fn
8d
16e
16e
=8
4fn
8a}
{8a
=9
4fn
8a
8a
=10
8fn
16e
16e
4d}
==
!!!AGN: Ballade, Weglaufen, Schwangerschaft, Rueckkehr
!! Daenische Fassung der Ballade, mit "Die wiedergefundene Schwester"
!!    vermischt.
!!!ONB: ESAC (Essen Associative Code) Database: BALLADE
!!!AMT: simple duple
!!!AIN: vox
!!!EED: Helmut Schaffrath
!!!EEV: 1.0
*-
!!!title: @{OTL} [@{SCT}]
